!!!OTL: Weingruss
!!!ARE: Europa, Mitteleuropa, Deutschland
!!!SCT: A0319
!!!YEM: Copyright 1995, estate of Helmut Schaffrath.
**kern
*ICvox
*Ivox
*M3/1
*k[f#c#]
*D:
{1a
=1
1a
1a
2b
2b
=2
1ccn
2ccn
1ccn}
{2a
=3
1g
1g
2a
2b
=4
1.ccn
1.a
=5
0r}
{1g
=6
1a
1ccn
2b
2a
=7
1g
2e
1fn}
{2d
=8
1e
1fn
2g
2g
=9
0r}
{1e
=10
1fn
1g
2a
2a
=11
0r}
{1ccn
=12
1b
1a
1g
=13
1fn
0g
=14
0d}
==
!!!AGN: Romanze, Ballade, Lied, Trinklied
!! Joh. Ott 1534 No. 35
!!!ONB: ESAC (Essen Associative Code) Database: ALTDEU
!!!AMT: simple triple
!!!AIN: vox
!!!EED: Helmut Schaffrath
!!!EEV: 1.0
*-
